src/components/6_Remote/img/celebrate.svg

<svg width="50" height="50" viewBox="0 0 50 50" fill="none" xmlns="http://www.w3.org/2000/svg">
<path d="M23.45 21.3501C29.4 20.1001 33.3 14 33.3 8.50005C33.3 7.25005 32.3 6.30005 31.1 6.30005C29.85 6.30005 28.9 7.30005 28.9 8.50005V8.60005C28.9 13.7501 24.7 17.9501 19.55 17.9501H15.25C10.1 17.9501 5.9 13.7501 5.9 8.60005V8.50005C5.9 7.25005 4.9 6.30005 3.7 6.30005C2.5 6.30005 1.5 7.30005 1.5 8.50005C1.5 14 5.45 20.1001 11.35 21.3501V32.0001H18.9" stroke="#E62334" stroke-width="2" stroke-miterlimit="10" stroke-linecap="round" stroke-linejoin="round"/>
<path d="M20.8496 14.2C20.8496 16.25 19.1496 17.95 17.0996 17.95C15.0496 17.95 13.3496 16.25 13.3496 14.2V13.5C13.3496 11.45 15.0496 9.75 17.0996 9.75C19.1496 9.75 20.8496 11.45 20.8496 13.5V14.2Z" stroke="#E62334" stroke-width="2" stroke-miterlimit="10" stroke-linecap="round" stroke-linejoin="round"/>
<path d="M26.7499 48.45V38.05C20.7999 36.8 16.8999 30.7 16.8999 25.2C16.8999 23.95 17.8999 23 19.0999 23C20.2999 23 21.2999 24 21.2999 25.2V25.3C21.2999 30.45 25.4999 34.65 30.6499 34.65H34.9999C40.1499 34.65 44.3499 30.45 44.3499 25.3V25.2C44.3499 23.95 45.3499 23 46.5499 23C47.7999 23 48.7499 24 48.7499 25.2C48.7499 30.7 44.7999 36.8 38.8999 38.05V48.45" stroke="#E62334" stroke-width="2" stroke-miterlimit="10" stroke-linecap="round" stroke-linejoin="round"/>
<path d="M36.3496 30.9C36.3496 32.9499 34.6496 34.65 32.5996 34.65C30.5496 34.65 28.8496 32.9499 28.8496 30.9V30.2C28.8496 28.15 30.5496 26.45 32.5996 26.45C34.6496 26.45 36.3496 28.15 36.3496 30.2V30.9Z" stroke="#E62334" stroke-width="2" stroke-miterlimit="10" stroke-linecap="round" stroke-linejoin="round"/>
<path d="M12.0996 32V48.45" stroke="#E62334" stroke-width="2" stroke-miterlimit="10" stroke-linecap="round" stroke-linejoin="round"/>
<path d="M16.5503 37.55V48.4501" stroke="#E62334" stroke-width="2" stroke-miterlimit="10" stroke-linecap="round" stroke-linejoin="round"/>
<path d="M21.0503 34.9001V48.4501" stroke="#E62334" stroke-width="2" stroke-miterlimit="10" stroke-linecap="round" stroke-linejoin="round"/>
<path d="M48.95 12.4001H47.75" stroke="#E62334" stroke-width="2" stroke-miterlimit="10" stroke-linecap="round" stroke-linejoin="round"/>
<path d="M43.0999 12.4001H41.8999" stroke="#E62334" stroke-width="2" stroke-miterlimit="10" stroke-linecap="round" stroke-linejoin="round"/>
<path d="M45.5 8.90015V10.1001" stroke="#E62334" stroke-width="2" stroke-miterlimit="10" stroke-linecap="round" stroke-linejoin="round"/>
<path d="M45.5 14.7502V15.9502" stroke="#E62334" stroke-width="2" stroke-miterlimit="10" stroke-linecap="round" stroke-linejoin="round"/>
<path d="M24.9998 4.6001H23.7998" stroke="#E62334" stroke-width="2" stroke-miterlimit="10" stroke-linecap="round" stroke-linejoin="round"/>
<path d="M19.1497 4.6001H17.9497" stroke="#E62334" stroke-width="2" stroke-miterlimit="10" stroke-linecap="round" stroke-linejoin="round"/>
<path d="M21.5498 1.1001V2.3001" stroke="#E62334" stroke-width="2" stroke-miterlimit="10" stroke-linecap="round" stroke-linejoin="round"/>
<path d="M21.5498 6.9502V8.1502" stroke="#E62334" stroke-width="2" stroke-miterlimit="10" stroke-linecap="round" stroke-linejoin="round"/>
</svg>

<svg xmlns:xlink="http://www.w3.org/1999/xlink" width="50" height="50" fill="none"><g stroke="#e62334" stroke-width="2" stroke-miterlimit="10" stroke-linejoin="round"><path d="M23.45 21.35C29.4 20.1 33.3 14 33.3 8.5c0-1.25-1-2.2-2.2-2.2-1.25 0-2.2 1-2.2 2.2v.1a9.37 9.37 0 0 1-9.35 9.35h-4.3A9.37 9.37 0 0 1 5.9 8.6v-.1c0-1.25-1-2.2-2.2-2.2a2.22 2.22 0 0 0-2.2 2.2c0 5.5 3.95 11.6 9.85 12.85V32h7.55" stroke-linecap="round"/><use xlink:href="#B"/><path d="M26.75 48.45v-10.4C20.8 36.8 16.9 30.7 16.9 25.2c0-1.25 1-2.2 2.2-2.2a2.22 2.22 0 0 1 2.2 2.2v.1a9.37 9.37 0 0 0 9.35 9.35H35a9.37 9.37 0 0 0 9.35-9.35v-.1c0-1.25 1-2.2 2.2-2.2 1.25 0 2.2 1 2.2 2.2 0 5.5-3.95 11.6-9.85 12.85v10.4" stroke-linecap="round"/><use xlink:href="#B" x="15.5" y="16.7"/><path d="M12.1 32v16.45m4.45-10.9v10.9m4.5-13.55v13.55m27.9-36.05h-1.2m-4.65 0h-1.2m3.6-3.5v1.2m0 4.65v1.2M25 4.6h-1.2m-4.65 0h-1.2m3.6-3.5v1.2m0 4.65v1.2" stroke-linecap="round"/></g><defs ><path id="B" d="M20.85 14.2a3.78 3.78 0 0 1-3.75 3.75 3.78 3.78 0 0 1-3.75-3.75v-.7a3.78 3.78 0 0 1 3.75-3.75 3.78 3.78 0 0 1 3.75 3.75v.7z"/></defs></svg>
